X:148
T:Drunken Tinker
M:4/4
L:1/8
R:Reel
K:ADor
"Ami"EAAG EG"G"DG|"Ami"EA A2 fAeA|"Ami"EAAG EDEF|"G"G2 EG B,GDG|
"Ami"EAAG EG"G"DG|"Ami"EA A2 fAeA|EAAG EDEF|"G"GFGB dGBG:|
"Ami"A2 eA fAeA|fAeA "G"dBAB|"Ami"A2 eA fAeA|"G"d2 BG DGBG|
"Ami"A2 eA fAeA|fAeA "G"dBGB|"Emi"edef gfge|"G"d2 BG DGBG:|
